website/public/svg/phoneIcon.svg

<svg width="101" height="101" viewBox="0 0 101 101" fill="none" xmlns="http://www.w3.org/2000/svg">
<path fill-rule="evenodd" clip-rule="evenodd" d="M97.9546 11.983L88.697 2.75102C86.1429 0.200182 81.9966 0.200182 79.4393 2.75102L65.5529 21.2149C63.4331 24.3383 62.9988 27.8959 65.5529 30.4468L71.2207 36.0985C67.0197 41.7277 61.9759 47.8651 56.2984 53.5265C49.8779 59.9277 42.7369 65.7467 36.3164 70.5267L30.8384 65.068C28.2843 62.5172 24.7169 62.9482 21.5807 65.068L3.06545 78.9159C-0.038662 81.055 0.508175 85.5969 3.06545 88.1478L12.3231 97.3765C17.4376 102.478 24.0865 100.844 30.8384 97.3765C30.8384 97.3765 51.274 85.9379 68.7696 68.4906C85.2262 52.079 97.9546 30.4468 97.9546 30.4468C100.608 23.1674 103.069 17.0815 97.9546 11.983Z" fill="white"/>
</svg>

<svg xmlns="http://www.w3.org/2000/svg" width="101" height="101" fill="none"><path fill="#fff" fill-rule="evenodd" d="m97.955 11.983-9.258-9.232a6.556 6.556 0 0 0-9.258 0L65.553 21.215c-2.12 3.123-2.554 6.68 0 9.232l5.668 5.652c-4.201 5.629-9.245 11.766-14.923 17.428-6.42 6.4-13.561 12.22-19.982 17l-5.478-5.459c-2.554-2.55-6.121-2.12-9.257 0L3.065 78.916c-3.104 2.139-2.557 6.68 0 9.232l9.258 9.228c5.115 5.102 11.764 3.468 18.515 0 0 0 20.436-11.438 37.932-28.885 16.456-16.412 29.185-38.044 29.185-38.044 2.653-7.28 5.114-13.365 0-18.464" clip-rule="evenodd"/></svg>
